X:1
T:174 - Faça-se a Luz
T:Letra: John Marriott (1780-1825)
T:Trad.: João Gomes da Rocha (1861-1947)
T:Música: Lowell Mason (1792-1872)
L:1/8
Q:1/4=110
M:4/4
K:Eb
V:1
 "Eb"E4 G2 B2 | "Bb"B3"(Bb7)"A "Eb"G4 | "Bb"F4 F2 A2 |"Bb7"A3 GF4 | "Eb"G4 F2 "F7"=A2 | "Bb"B6z2 | "Eb"B4 G2 "(Bb7)"A2 |"(Eb)"B3c B4 | "(Eb)"B4 G2 "(Bb7)"A2 | "(Eb)"B3c B4 | e4 "(Bb)"d2 "(Ab)"c2 | "(Eb)"B3A "Cm"G4 | "Eb"E4 "Fm"F2 "Bb"D2 | "Eb"E6z2 |] 
w: 1.~Tu que man-das-te,ó Deus, Dan-door-dem com po-der; "Fa-ça-sea luz!" Ou-ve-nos com fa-vor, On-de teu su-moa-mor Não bri-lha com ful-gor, Fa-ça-sea luz!
w: 2.~Fon-te de luz dos céus, Te-mos em nos-so Deus, Nos-so Je-sus. Ce-gos, há cla-ri-dão! Im-pios, eis o per-dão! Den-tro do co-ra-ção Fa-ça-sea luz!
w: 3.~Mes-tre con-so-la-dor, Â-ni-moa-bra-sa-dor Em nós pro-duz. Paz, ze-lo, fé, po-der Sem-prean-si-a-mos ter! Cum-pra-se teu pra-zer: Fa-ça-sea luz!
w: 4.~Nun-ca ti-ves-tei-gual, Ú-ni-co ései-mor-tal! Dá-nos a luz! Pai, san-to é teua-mor; És e-ter-nal Se-nhor, Ter-no Con-so-la-dor, Fa-ça-sea luz!
W: 
W:
W: 1. Tu que mandaste, ó Deus,
W: Dando ordem com poder;
W: "Faça-se a luz!"
W: Ouve-nos com favor,
W: Onde teu sumo amor
W: Não brilha com fulgor,
W: Faça-se a luz!
W: 
W: 2. Fonte de luz dos céus,
W: Temos em nosso Deus,
W: Nosso Jesus.
W: Cegos, há claridão!
W: Impios, eis o perdão!
W: Dentro do coração
W: Faça-se a luz!
W: 
W:
W:
W: 3. Mestre consolador,
W: Ânimo abrasador
W: Em nós produz.
W: Paz, zelo, fé, poder
W: Sempre ansiamos ter!
W: Cumpra-se teu prazer:
W: Faça-se a luz!
W: 
W: 4. Nunca tiveste igual,
W: Único és e imortal!
W: Dá-nos a luz!
W: Pai, santo é teu amor;
W: És eternal Senhor,
W: Terno Consolador,
W: Faça-se a luz!
W:         
W: 





